X:505
T: Politician [The]
T: Udar\'as Gan Eolas
S: "The Roche Collection of Traditional Irish Music" [III/30/99]
L: 1/8
M: 6/8
R: jig
K: D
z | FEF ABc | ded cBA | BGE EFE | B2A Bcd |
FEF ABc | ded cBA | Bcd ecA | d3 d2 :|
A | d2e fdB | BcB fdB | c2d ecA | ABA ecA |
d2e fdB | agf ecA | Bcd ecA | d3 d2 :|
